X: 41874
T: Vladimir's Steamboat
R: reel
M: 4/4
K: Amajor
EG AB AG EG|AB AG ED B,E|EG AB AG EC|DC DF E4|
EG AB AG EG|AB dB dB Ad|BA GB AG EC|D3B, E4||
|:e3B e2 e2|eB de fe dc|Bc BA GA Bc|de ed BB e2|1
e3B e2 e2|eB de fe dc|Bc BA GA Bc|BG AF EE GB:|2
e3f ed Bd|ef eB de fe|dc Bc BA GA|Bc BG AF E2||
[2 e3f ed Bd|ef eB de fe|dc Bc BA GA|Bc BG AF E2||

